findly-builder/apps/searchassist/src/assets/icons/onboarding/database.svg

<svg width="46" height="50" viewBox="0 0 46 50" fill="none" xmlns="http://www.w3.org/2000/svg">
<path d="M38.3327 29.0126H7.66602C7.66602 29.0126 7.66602 39.4468 7.66602 40.1874C7.66602 42.4315 14.5306 44.2509 22.9993 44.2509C31.4681 44.2509 38.3327 42.4315 38.3327 40.1874C38.3327 39.4468 38.3327 29.0126 38.3327 29.0126Z" fill="url(#paint0_linear_1203_4683)"/>
<path d="M38.3327 18.8536H7.66602C7.66602 18.8536 7.66602 29.2879 7.66602 30.0284C7.66602 32.2725 14.5306 34.092 22.9993 34.092C31.4681 34.092 38.3327 32.2725 38.3327 30.0284C38.3327 29.2879 38.3327 18.8536 38.3327 18.8536Z" fill="url(#paint1_linear_1203_4683)"/>
<path d="M38.3327 8.6947H7.66602C7.66602 8.6947 7.66602 18.6057 7.66602 19.3616C7.66602 21.3253 14.5306 22.9172 22.9993 22.9172C31.4681 22.9172 38.3327 21.3253 38.3327 19.3616C38.3327 18.6057 38.3327 8.6947 38.3327 8.6947Z" fill="url(#paint2_linear_1203_4683)"/>
<path d="M22.9993 11.7424C31.4677 11.7424 38.3327 10.378 38.3327 8.69477C38.3327 7.01158 31.4677 5.64709 22.9993 5.64709C14.531 5.64709 7.66602 7.01158 7.66602 8.69477C7.66602 10.378 14.531 11.7424 22.9993 11.7424Z" fill="url(#paint3_linear_1203_4683)"/>
<defs>
<linearGradient id="paint0_linear_1203_4683" x1="7.66602" y1="36.6318" x2="38.3327" y2="36.6318" gradientUnits="userSpaceOnUse">
<stop stop-color="#11408A"/>
<stop offset="1" stop-color="#103F8F"/>
</linearGradient>
<linearGradient id="paint1_linear_1203_4683" x1="7.66602" y1="26.4728" x2="38.3327" y2="26.4728" gradientUnits="userSpaceOnUse">
<stop stop-color="#1D59B3"/>
<stop offset="1" stop-color="#195BBC"/>
</linearGradient>
<linearGradient id="paint2_linear_1203_4683" x1="7.66602" y1="15.8059" x2="38.3327" y2="15.8059" gradientUnits="userSpaceOnUse">
<stop stop-color="#3079D6"/>
<stop offset="1" stop-color="#297CD2"/>
</linearGradient>
<linearGradient id="paint3_linear_1203_4683" x1="7.66602" y1="8.69477" x2="38.3327" y2="8.69477" gradientUnits="userSpaceOnUse">
<stop stop-color="#42A3F2"/>
<stop offset="1" stop-color="#42A4EB"/>
</linearGradient>
</defs>
</svg>

<svg width="46" height="50" fill="none" xmlns="http://www.w3.org/2000/svg"><path d="M38.333 29.013H7.666v11.174c0 2.245 6.865 4.064 15.333 4.064 8.47 0 15.334-1.82 15.334-4.064V29.013Z" fill="url(#a)"/><path d="M38.333 18.854H7.666v11.174c0 2.245 6.865 4.064 15.333 4.064 8.47 0 15.334-1.82 15.334-4.064V18.854Z" fill="url(#b)"/><path d="M38.333 8.695H7.666v10.667c0 1.963 6.865 3.555 15.333 3.555 8.47 0 15.334-1.592 15.334-3.555V8.695Z" fill="url(#c)"/><path d="M23 11.742c8.468 0 15.333-1.364 15.333-3.047s-6.865-3.048-15.334-3.048c-8.468 0-15.333 1.365-15.333 3.048s6.865 3.047 15.333 3.047Z" fill="url(#d)"/><defs><linearGradient id="a" x1="7.666" y1="36.632" x2="38.333" y2="36.632" gradientUnits="userSpaceOnUse"><stop stop-color="#11408A"/><stop offset="1" stop-color="#103F8F"/></linearGradient><linearGradient id="b" x1="7.666" y1="26.473" x2="38.333" y2="26.473" gradientUnits="userSpaceOnUse"><stop stop-color="#1D59B3"/><stop offset="1" stop-color="#195BBC"/></linearGradient><linearGradient id="c" x1="7.666" y1="15.806" x2="38.333" y2="15.806" gradientUnits="userSpaceOnUse"><stop stop-color="#3079D6"/><stop offset="1" stop-color="#297CD2"/></linearGradient><linearGradient id="d" x1="7.666" y1="8.695" x2="38.333" y2="8.695" gradientUnits="userSpaceOnUse"><stop stop-color="#42A3F2"/><stop offset="1" stop-color="#42A4EB"/></linearGradient></defs></svg>
